X:1
T:(unknown title)
M:4/4
L:1/4
K:C
 G A c3/2 c/2| e c A2| G A c3/2 c/2| d2- A2| d d d3/2 c/2| e c A2|\
 G e e3/2 d/2| c3 z| G G A3/2 c/2| d2- A2| d d d3/2 c/2| e c A2| G e e3/2 d/2|\
 c4|

